X:74
T:Hay For the Cow* + (barn dance)
B:NFID.109c ("untitled barndance")
074hay_c
S:SD
L:1/8
M:C
R:hornpipe
Q:270
K:D
AFAd f2d2|e^def B3d|c2EF G3A|BAAB A2F2|
AFAd f2d2|e^def B3d|c2EF GABc|1 d2e2d2FG:|2 d2c2d2||
%B
ag|fdad f2f2|e^de^a b2bd'|c'bge c3d|(3efe (3dcB A2a2|
fdad f2f2|e^de^a b2bd'|c'bge c3d|(3efe dc d2:|
%
P:alternate second part
ag|fdad f2f2|efdc B2Bd|cBGA c3d|e2dB A2a2|
fdad f2f2|efdc B2Bd|cBGA c3d|(3efe dc d2:|

%%%

